!!!OTL: O Welt, ich muss dich lassen
!!!COL: Hymnal 1982
**kern	**text	**text	**text
*clefG2	*	*	*
*k[b-]	*	*	*
*M4/4	*	*	*
*F:	*	*	*
=0	=0	=0	=0
4a	O	O	O
=1	=1	=1	=1
4f	Food	stream	Je-
4g	to	of	sus,
8aL	pil-	love	by
8b-J	.	.	.
4cc	grims	past	thee
=2	=2	=2	=2
2b-	giv-	tell-	bid-
4a;	en,	ing,	den,
8aL	O	O	we
8b-J	.	.	.
=3	=3	=3	=3
4cc	Bread	pur-	here
4cc	of	est	a-
4g	life	foun-	dore
4a	from	tain,	thee,
=4	=4	=4	=4
2f	hea-	well-	hid-
4e;	ven,	ing	den
4c	O	out	in
=5	=5	=5	=5
4f	Man-	from	forms
4g	na	the	of
4a	from	Sa-	bread
4a	on	vior's	and
=6	=6	=6	=6
2.g;	high!	side!	wine.
4a	We	We	Grant
=7	=7	=7	=7
4f	hun-	faint	when
4g	ger;	with	the
8aL	Lord,	thirst;	veil
8b-J	.	.	.
4cc	sup-	re-	is
=8	=8	=8	=8
2b-	ply	vive	riv-
4a;	us,	us,	en,
8aL	nor	of	we
8b-J	.	.	.
=9	=9	=9	=9
4cc	thy	thine	may
4cc	de-	a-	be-
4g	lights	bun-	hold,
4a	de-	dance	in
=10	=10	=10	=10
2f	ny	give	hea-
4e;	us,	us,	ven,
4c	whose	and	thy
=11	=11	=11	=11
4f	hearts	all	coun-
4g	.	.	.
4a	.	.	.
4b-	thee	we	te-
=12	=12	=12	=12
4a	to	need	nance
4g	draw	pro-	di-
2f;	nigh.	vide.	vine.
==	==	==	==
*-	*-	*-	*-
